Numix/24/emotes/face-ninja.svg

<?xml version="1.0" encoding="UTF-8" standalone="no"?>
<svg
   xmlns:dc="http://purl.org/dc/elements/1.1/"
   xmlns:cc="http://creativecommons.org/ns#"
   xmlns:rdf="http://www.w3.org/1999/02/22-rdf-syntax-ns#"
   xmlns:svg="http://www.w3.org/2000/svg"
   xmlns="http://www.w3.org/2000/svg"
   xmlns:sodipodi="http://sodipodi.sourceforge.net/DTD/sodipodi-0.dtd"
   xmlns:inkscape="http://www.inkscape.org/namespaces/inkscape"
   width="24px"
   height="24px"
   viewBox="0 0 18 18"
   version="1.1"
   id="svg1275"
   inkscape:version="0.91 r"
   sodipodi:docname="face-ninja.svg">
  <metadata
     id="metadata1294">
    <rdf:RDF>
      <cc:Work
         rdf:about="">
        <dc:format>image/svg+xml</dc:format>
        <dc:type
           rdf:resource="http://purl.org/dc/dcmitype/StillImage" />
      </cc:Work>
    </rdf:RDF>
  </metadata>
  <defs
     id="defs1292" />
  <sodipodi:namedview
     pagecolor="#ffffff"
     bordercolor="#666666"
     borderopacity="1"
     objecttolerance="10"
     gridtolerance="10"
     guidetolerance="10"
     inkscape:pageopacity="0"
     inkscape:pageshadow="2"
     inkscape:window-width="640"
     inkscape:window-height="480"
     id="namedview1290" />
  <g
     id="surface1">
    <path
       style=" stroke:none;fill-rule:nonzero;fill:rgb(100%,85.490196%,36.862745%);fill-opacity:1;"
       d="M 15.75 9 C 15.75 12.210938 12.726562 14.8125 9 14.8125 C 5.273438 14.8125 2.25 12.210938 2.25 9 C 2.25 5.789062 5.273438 3.1875 9 3.1875 C 12.726562 3.1875 15.75 5.789062 15.75 9 Z M 15.75 9 "
       id="path1278" />
    <path
       style=" stroke:none;fill-rule:nonzero;fill:rgb(39.607843%,39.607843%,39.607843%);fill-opacity:1;"
       d="M 7.6875 7.6875 C 7.6875 8.207031 7.269531 8.625 6.75 8.625 C 6.230469 8.625 5.8125 8.207031 5.8125 7.6875 C 5.8125 7.167969 6.230469 6.75 6.75 6.75 C 7.269531 6.75 7.6875 7.167969 7.6875 7.6875 Z M 7.6875 7.6875 "
       id="path1280" />
    <path
       style=" stroke:none;fill-rule:nonzero;fill:rgb(39.607843%,39.607843%,39.607843%);fill-opacity:1;"
       d="M 12.1875 7.6875 C 12.1875 8.207031 11.769531 8.625 11.25 8.625 C 10.730469 8.625 10.3125 8.207031 10.3125 7.6875 C 10.3125 7.167969 10.730469 6.75 11.25 6.75 C 11.769531 6.75 12.1875 7.167969 12.1875 7.6875 Z M 12.1875 7.6875 "
       id="path1282" />
    <path
       style=" stroke:none;fill-rule:nonzero;fill:rgb(16.862745%,16.862745%,16.862745%);fill-opacity:1;"
       d="M 9.195312 3.191406 C 6.238281 3.117188 3.570312 4.714844 2.617188 7.125 L 15.386719 7.125 C 14.476562 4.832031 12.011719 3.261719 9.195312 3.191406 Z M 9.195312 3.191406 "
       id="path1284" />
    <path
       style=" stroke:none;fill-rule:nonzero;fill:rgb(16.862745%,16.862745%,16.862745%);fill-opacity:1;"
       d="M 2.308594 9.75 C 2.765625 12.628906 5.621094 14.777344 9 14.777344 C 12.375 14.777344 15.230469 12.628906 15.6875 9.75 Z M 2.308594 9.75 "
       id="path1286" />
    <path
       style=" stroke:none;fill-rule:nonzero;fill:rgb(24.705882%,24.705882%,24.705882%);fill-opacity:1;"
       d="M 7.6875 11.625 L 10.3125 11.625 C 10.417969 11.625 10.5 11.707031 10.5 11.8125 L 10.5 12.1875 C 10.5 12.292969 10.417969 12.375 10.3125 12.375 L 7.6875 12.375 C 7.582031 12.375 7.5 12.292969 7.5 12.1875 L 7.5 11.8125 C 7.5 11.707031 7.582031 11.625 7.6875 11.625 Z M 7.6875 11.625 "
       id="path1288" />
  </g>
</svg>

<svg xmlns="http://www.w3.org/2000/svg" width="24" height="24" viewBox="0 0 18 18">
 <g>
  <path d="m 15.75 9 c 0 3.211 -3.02 5.813 -6.75 5.813 c -3.727 0 -6.75 -2.602 -6.75 -5.813 c 0 -3.211 3.02 -5.813 6.75 -5.813 c 3.727 0 6.75 2.602 6.75 5.813 m 0 0" style="fill:#ffd95d;fill-opacity:1;stroke:none;fill-rule:nonzero"/>
  <path d="m 7.688 7.688 c 0 0.52 -0.418 0.938 -0.938 0.938 c -0.52 0 -0.938 -0.418 -0.938 -0.938 c 0 -0.52 0.418 -0.938 0.938 -0.938 c 0.52 0 0.938 0.418 0.938 0.938 m 0 0" style="fill:#646464;fill-opacity:1;stroke:none;fill-rule:nonzero"/>
  <path d="m 12.188 7.688 c 0 0.52 -0.418 0.938 -0.938 0.938 c -0.52 0 -0.938 -0.418 -0.938 -0.938 c 0 -0.52 0.418 -0.938 0.938 -0.938 c 0.52 0 0.938 0.418 0.938 0.938 m 0 0" style="fill:#646464;fill-opacity:1;stroke:none;fill-rule:nonzero"/>
  <path d="m 9.195 3.191 c -2.957 -0.074 -5.625 1.523 -6.578 3.934 l 12.77 0 c -0.91 -2.293 -3.375 -3.863 -6.191 -3.934 m 0 0" style="fill:#2a2a2a;fill-opacity:1;stroke:none;fill-rule:nonzero"/>
  <path d="m 2.309 9.75 c 0.457 2.879 3.313 5.03 6.691 5.03 c 3.375 0 6.23 -2.148 6.688 -5.03 m -13.379 0" style="fill:#2a2a2a;fill-opacity:1;stroke:none;fill-rule:nonzero"/>
  <path d="m 7.688 11.625 l 2.625 0 c 0.105 0 0.188 0.082 0.188 0.188 l 0 0.375 c 0 0.105 -0.082 0.188 -0.188 0.188 l -2.625 0 c -0.105 0 -0.188 -0.082 -0.188 -0.188 l 0 -0.375 c 0 -0.105 0.082 -0.188 0.188 -0.188 m 0 0" style="fill:#3e3e3e;fill-opacity:1;stroke:none;fill-rule:nonzero"/>
 </g>
</svg>
